X: 1
T: Saga of Harrison Crabfeathers
C: Steve Kuhn
R: jazz waltz
S: Fiddle Hell Online 2021-11-05 workshop handout (handwritten)
Z: 2021 John Chambers <jc:trillian.mit.edu>
M: 3/4
L: 1/4
K: C	% or "none"
[|\
"E-"B2d | A2G | B2e | A2G | "Cmaj7"E^FG | ^F2D | E3- | E2B | "A-"BAG | ^F2E |
BAG | ^F2D | "E-"E3- | E3- | E3- | E3 || "D-"A2c | G2=F | A2d | G2F |
"Bbmaj7"DEF | E2C | D3- | D2A | "G-"AGF | E2D | AGF | E2C | "D-"D3- |
D3- | D3- | D3 || "Abmaj7"G2F- | F_E2 | D2_E- | E_B2 | G2F- | F_E2 |
D2_E- | EF2 || "C-"G2_B | F2_E | G2c | F2_E | "Abmaj7"CD_E | D2_B, | C3- |
C2G | "F-"GF_E | D2C | GF_E | HD2_B, | "C-"HC3- | C3- | C3- | C3 |]
%%text The '-' in chords usually means minor.
N: The handout page also has 3 staffs with only the chords over numeric bar-count symbols.
%%text at bottom: STEVE KULN - "LIVE IN NEW YORK" "CHICKENFEATHERS" (AFTER SOLOS, D.C. al !FINE!)
